X:1
T:Title
%%score 1 2
L:1/8
Q:1/4=102
M:4/4
K:Ab
V:1 treble nm="Grand Piano, Soprano"
V:2 bass nm="Choir Pad, In the Shadow of His Wings Rex"
V:1
 [CE]>[CF] [CE]2 [Ec]2 [DB]2 | [CA]2 [DF][FA]- [FA]3- [FA]/ z/ | [EG]>[DF] [CE]2 [CA]2 [DB]2 | %3
w: By~Charles~Austin~Miles * * * *|||
 [Ec]2 [EB]6 | [DE]>[DF] [CE]2 [Ec]2 [DB]2 | [CA]2 [DF][FA]- [FA]3- [FA]/ z/ | %6
w: |||
 [EG]>[DF] [CE]2 [CA]2 [DA]2 | [DG]2 [CA]6 | [DG]>[DA] [DB]2 [DE]2 [DF]2 | [DG]2 [CA][DB] [Ec]4 | %10
w: ||||
 [Ec]>[Ec] [A=d]2 [AB]2 [Ac]2 | [A=d]2 [Ge]6 | [Ac]>[Ad] [Ae]2 [Ec]2 [Fd]2 | %13
w: |||
 [Ec]2 [DB]2 [DA]2 [_CG]2 | [CF]2 [CE][Ec]- [Ec]2 [Ec]2- | [Ec][DB] [CA]6 | %16
w: |||
 [EG]>[EA] [EB]2 [Ec]2 [Ed]2 | [EB]2 [Ec][Ae]- [Ae]3- [Ae]/ z/ | [Ec]>[DB] [CA]2 [CF]2 [=DB]2 | %19
w: |||
 [=Dc]2 [_DB]6 | [Ac]>[Ad] [Ae]2 [Ec]2 [Fd]2 | [Ec]2 [DB]2 [DA]2 [_CG]2 | %22
w: |||
 [_CF]2 [=CE][Ec]- [Ec]2 [Ec]2- | [Ec][DB] [CA]6- | [CA]2 z2 z4 |] %25
w: |||
V:2
 [A,,A,]>[A,,A,] [A,,A,]2 [A,,A,]2 [A,,A,]2 | [A,,A,]2 [D,A,][D,A,]- [D,A,]3- [D,A,]/ z/ | %2
 [D,A,]>[D,A,] [A,,A,]2 [A,,A,]2 [A,,A,]2 | [A,,A,]2 [E,G,]6 | %4
 [E,G,]>[E,G,] [A,,A,]2 [A,,A,]2 [A,,A,]2 | [A,,A,]2 [D,A,][D,A,]- [D,A,]3- [D,A,]/ z/ | %6
 [D,A,]>[D,A,] [E,A,]2 [E,A,]2 [E,B,]2 | [E,B,]2 [A,,A,]6 | [E,B,]>[E,A,] [E,G,]2 [E,G,]2 [E,A,]2 | %9
 [E,B,]2 [A,,A,]2 [A,,A,]4 | [A,,A,]>[A,,A,] [B,,F,]2 [B,,F,]2 [B,,B,]2 | [B,,B,]2 [E,B,]6 | %12
 A,>[A,B,] [A,C]2 A,2 A,2 | [A,,A,]2 [D,F,]2 [D,F,]2 [=D,A,]2 | %14
 [=D,A,]2 [E,A,][E,A,]- [E,A,]2 [E,G,]2- | [E,G,][E,G,] [A,,A,]6 | %16
 [E,B,]>[E,A,] [E,G,]2 [E,A,]2 [E,B,]2 | [E,G,]2 A,[A,C]- [A,C]3- [A,C]/ z/ | %18
 [A,,A,]>[A,,A,] [A,,A,]2 [A,,A,]2 [B,,F,]2 | [B,,A,]2 [E,G,]6 | A,>[A,B,] [A,C]2 A,2 A,2 | %21
 [A,,A,]2 [D,F,]2 [D,F,]2 [=D,A,]2 | [=D,A,]2 [E,A,][E,A,]- [E,A,]2 [E,G,]2- | %23
 [E,G,][E,G,] [A,,A,]6- | [A,,A,]2 z2 z4 |] %25

